X:1
T:[ID 2-17]
T:[ID 2-17]
T:Bezeichnung standardisiert: K\"onigs Quadrille; K\"onigs Quadrillge [mit Trio] In dieser Quelle auch als: K\"onnigs Trille In dieser Quelle auch als: Konigs Quadrille In dieser Quelle auch als: Konigs Quadrillge In dieser Quelle auch als: March In dieser Quelle auch als: Quadrillge
T:Urheber unbekannt Datum in der hier transkribierten schriftlichen Quelle: 1767
C:Urheber unbekannt
C:Datum in der hier transkribierten schriftlichen Quelle: 1767
L:1/8
M:2/4
K:G
V:1 treble 
V:1
 GG/G/ GA | BB/B/ Bc | .d.g.d.g | d/e/d/c/ B/c/B/A/ | GG/G/ GA | BB/B/ Bc | dc/B/ e/d/c/B/ | %7
 AA/A/ A2 :: AA/A/ AG/A/ | BB/B/ B2 | ff/f/ fe/f/ | gg/g/ g2 | ee e/g/f/e/ | d/e/d/c/ Bc | %14
 B/c/d/e/ d/c/B/A/ | GG/G/ G2 ::"^Trio" !fermata![G,DBg]2 d2 | d/e/d/c/ Bc | dg fe | e2 d2 | %20
 c/d/c/B/ AA | B/c/B/A/ GG | A/B/A/G/ FF | GG G2 :: ddde | fffg | aaab | !fermata!c'3 f | %28
 gb/g/ dd | c/d/c/B/ AA | A/B/A/G/ FF | GG G2 :| %32

